src/actions/24/transform-scale.svg

<svg viewBox="0 0 24 24" xmlns="http://www.w3.org/2000/svg">
 <defs>
  <style type="text/css">.ColorScheme-Text {
        color:#2e3440;
      }</style>
 </defs>
 <path class="ColorScheme-Text" d="m4 4v2 1h3v-1-2h-2-1zm13 0v1 1 1h1 1 1v-1-1-1h-3zm-12 1h1v1h-1v-1zm13 0h1v1h-1v-1zm-10 1v1h2v-1h-2zm3 0v1h2v-1h-2zm3 0v1h2v-1h-2zm-8 2v2h1v-2h-1zm11 0v2h1v-2h-1zm-11 3v2h1v-2h-1zm5 1v6h1 4 1v-1-4-1h-1-4-1zm1 1h4v4h-4v-4zm-6 1v2h1v-2h-1zm13 2v3h-3v1h4v-1-3h-1zm-15 1v1 2h1 1 1v-3h-3zm4 0v1h2v-1h-2zm-3 1h1v1h-1v-1z" fill="currentColor"/>
</svg>

<svg xmlns="http://www.w3.org/2000/svg" viewBox="0 0 24 24">
  <defs id="defs3051">
    <style type="text/css" id="current-color-scheme">
      .ColorScheme-Text {
        color:#2e3440;
      }
      </style>
  </defs>
 <path style="fill:currentColor;fill-opacity:1;stroke:none" 
     d="M 4 4 L 4 6 L 4 7 L 7 7 L 7 6 L 7 4 L 5 4 L 4 4 z M 17 4 L 17 5 L 17 6 L 17 7 L 18 7 L 19 7 L 20 7 L 20 6 L 20 5 L 20 4 L 17 4 z M 5 5 L 6 5 L 6 6 L 5 6 L 5 5 z M 18 5 L 19 5 L 19 6 L 18 6 L 18 5 z M 8 6 L 8 7 L 10 7 L 10 6 L 8 6 z M 11 6 L 11 7 L 13 7 L 13 6 L 11 6 z M 14 6 L 14 7 L 16 7 L 16 6 L 14 6 z M 6 8 L 6 10 L 7 10 L 7 8 L 6 8 z M 17 8 L 17 10 L 18 10 L 18 8 L 17 8 z M 6 11 L 6 13 L 7 13 L 7 11 L 6 11 z M 11 12 L 11 18 L 12 18 L 16 18 L 17 18 L 17 17 L 17 13 L 17 12 L 16 12 L 12 12 L 11 12 z M 12 13 L 16 13 L 16 17 L 12 17 L 12 13 z M 6 14 L 6 16 L 7 16 L 7 14 L 6 14 z M 19 16 L 19 19 L 16 19 L 16 20 L 20 20 L 20 19 L 20 16 L 19 16 z M 4 17 L 4 18 L 4 20 L 5 20 L 6 20 L 7 20 L 7 17 L 4 17 z M 8 17 L 8 18 L 10 18 L 10 17 L 8 17 z M 5 18 L 6 18 L 6 19 L 5 19 L 5 18 z "
     class="ColorScheme-Text"
     />
</svg>
